H/highcontext.ai logo.svg

<svg xmlns="http://www.w3.org/2000/svg" width="1737.459" height="642.635" xmlns:v="https://vecta.io/nano"><style><![CDATA[.B{color-interpolation-filters:sRGB}]]></style><g stroke="#000" fill="#444" stroke-width="21.176" class="B"><path fill-opacity="0" d="M792.847 222.353V81.176h863.435v550.871H792.847V490.871"/><path fill-opacity="0" d="M863.435 81.176V10.588h863.435v550.871h-70.588"/></g><path d="M0 421.482V252.635h31.835v69.035H86.4v-69.035h31.835v168.847H86.4v-69.459H31.835v69.459zm153.882 0v-28.941H194.4v-61.765h-37.624v-28.941h68.047v90.706h34.729v28.941zM232.306 266.4h0q0 4.871-1.835 9.035-1.835 4.235-4.941 7.271-3.176 3.035-7.341 4.8-4.235 1.835-8.824 1.835h0q-4.8 0-8.894-1.835-4.165-1.765-7.271-4.8-3.106-3.035-4.941-7.271-1.835-4.165-1.835-9.035h0q0-4.8 1.835-9.035 1.835-4.235 4.941-7.2 3.106-3.035 7.271-4.871 4.094-1.765 8.894-1.765h0q4.588 0 8.824 1.765 4.165 1.835 7.341 4.871 3.106 2.965 4.941 7.2 1.835 4.235 1.835 9.035zm152.4 167.153v-29.435h-4.376q-1.906 4.094-4.659 7.835-2.824 3.741-7.271 6.635-4.447 2.894-10.588 4.588-6.141 1.694-14.824 1.694h0q-11.082 0-20.612-4.024-9.529-3.953-16.659-11.788-7.129-7.835-11.082-19.2-4.024-11.294-4.024-26.047h0v-4.306q0-14.471 4.235-25.835 4.235-11.294 11.576-19.129 7.341-7.835 17.153-11.929 9.741-4.094 20.612-4.094h0q14.471 0 22.871 5.365 8.471 5.435 13.271 15.318h0 4.376v-17.365h30.353v149.082q0 8.188-5.153 13.482-5.224 5.294-13.412 5.294h0-80.541v-28.941h62.259q6.494 0 6.494-7.2zm-31.835-37.624h0q14.188 0 23.012-9.035 8.824-9.035 8.824-23.788h0v-2.894q0-14.682-8.824-23.718-8.824-9.035-23.012-9.035h0q-14.259 0-23.082 8.753-8.753 8.824-8.753 24h0v2.894q0 15.176 8.753 24 8.824 8.824 23.082 8.824zm124.941-36.635v62.188h-30.424V252.635h30.424v68.541h4.306q4.588-10.871 13.482-16.8 8.965-5.859 21.953-5.859h0q8.965 0 16.447 2.894 7.412 2.894 12.988 8.682 5.576 5.788 8.682 14.824 3.106 9.035 3.106 21.318h0v75.247h-30.353v-67.976q0-12.847-6.141-20.188-6.141-7.341-17.718-7.341h0q-13.553 0-20.188 9.035-6.565 9.035-6.565 24.282zm172.165 36.635h0q9.176 0 15.035-2.753 5.929-2.824 9.176-7.482 3.247-4.729 4.447-10.871 1.271-6.141 1.271-12.635h0v-4.376h31.835v4.376q0 30.141-15.812 46.376-15.812 16.306-45.953 16.306h0q-28.941 0-45.812-17.647-16.871-17.576-16.871-51.318h0v-37.624q0-16.165 4.306-29.082 4.376-12.918 12.565-21.671 8.188-8.824 19.765-13.553 11.576-4.659 26.047-4.659h0q14.965 0 26.541 4.306 11.576 4.376 19.412 12.565 7.835 8.188 11.788 19.765 4.024 11.576 4.024 26.047h0v4.306h-31.835V312q0-6.071-1.482-12.071-1.412-6-4.8-10.871-3.388-4.8-9.176-7.835-5.788-2.965-14.471-2.965h0q-7.976 0-13.765 2.965-5.788 3.035-9.6 8.188-3.882 5.224-5.718 12.071-1.765 6.918-1.765 14.4h0v42.424q0 8.188 1.694 15.035 1.624 6.918 5.294 12 3.6 5.012 9.529 7.835 5.859 2.753 14.329 2.753zm209.294-35.718v2.894q0 14.965-5.012 26.4-5.082 11.506-13.765 19.341-8.682 7.835-19.906 11.929-11.224 4.094-23.506 4.094h0q-12.282 0-23.506-4.094-11.224-4.094-19.906-11.929-8.682-7.835-13.765-19.341-5.012-11.435-5.012-26.4h0v-2.894q0-14.682 5.012-26.118 5.082-11.506 13.765-19.482 8.682-7.906 19.906-12 11.224-4.094 23.506-4.094h0q12.282 0 23.506 4.094 11.224 4.094 19.906 12 8.682 7.976 13.765 19.482 5.012 11.435 5.012 26.118zm-62.188 35.718h0q6.494 0 12.282-2.188 5.788-2.188 10.165-6.282 4.306-4.094 6.847-10.024 2.541-5.859 2.541-13.341h0v-4.8q0-7.482-2.541-13.412-2.541-5.929-6.847-10.024-4.376-4.094-10.165-6.282-5.788-2.118-12.282-2.118h0q-6.494 0-12.282 2.118-5.788 2.188-10.165 6.282-4.306 4.094-6.847 10.024-2.541 5.929-2.541 13.412h0v4.8q0 7.482 2.541 13.341 2.541 5.929 6.847 10.024 4.376 4.094 10.165 6.282 5.788 2.188 12.282 2.188zm122.965-36.635v62.188h-30.353V301.835h30.353v17.859h4.376q4.094-10.094 13.271-15.671 9.176-5.506 21.459-5.506h0q8.682 0 16.306 2.753 7.553 2.753 13.341 8.541 5.788 5.788 9.035 14.753 3.247 8.894 3.247 21.176h0v75.741h-30.353v-67.976q0-12.847-6.141-20.188-6.141-7.341-17.718-7.341h0q-13.553 0-20.188 9.035-6.635 9.035-6.635 24.282zm113.859-28.518v-28.941h35.435v-49.2h30.424v49.2h43.129v28.941h-43.129v54.565q0 7.2 6.494 7.2h0 32.329v28.941h-50.682q-8.188 0-13.341-5.294-5.224-5.294-5.224-13.482h0v-71.929zm265.553 40.8h-87.812q.212 5.294 2.541 9.741 2.259 4.447 6.282 7.694 3.953 3.318 9.176 5.082 5.153 1.835 10.941 1.835h0q11.365 0 17.365-4.024 6-3.953 8.682-9.459h0l26.047 14.471q-2.188 4.518-6 9.459-3.882 5.012-10.024 9.106-6.141 4.094-14.965 6.706-8.824 2.682-20.612 2.682h0q-13.553 0-24.635-4.376-11.082-4.306-19.129-12.494-8.118-8.188-12.565-20.047-4.447-11.788-4.447-26.753h0v-1.482q0-13.694 4.659-25.059 4.729-11.365 12.918-19.271 8.188-7.976 19.2-12.424 10.941-4.447 23.506-4.447h0q15.459 0 26.541 5.365 11.082 5.435 18.282 13.765 7.271 8.329 10.659 18.353 3.388 10.024 3.388 19.412h0zm-59.082-45.6h0q-11.576 0-18.847 5.929-7.2 5.859-9.388 13.624h0 56.4q-1.412-8.471-9.035-13.976-7.553-5.576-19.129-5.576zm149.224 19.765l22.235-43.906h33.529l-28.941 56.188v4.376l30.635 59.082h-35.012l-22.447-46.8h-4.306l-22.447 46.8h-34.941l30.635-59.082v-4.376l-29.224-56.188h33.812l22.165 43.906zm87.106-14.965v-28.941h35.435v-49.2h30.353v49.2h43.2v28.941h-43.2v54.565q0 7.2 6.565 7.2h0 32.329v28.941h-50.682q-8.188 0-13.412-5.294-5.153-5.294-5.153-13.482h0v-71.929z" class="B"/></svg>

<?xml version="1.0" ?>
<svg xmlns="http://www.w3.org/2000/svg" viewBox="0 0 1726.87 642.635">
    <style>
    .B {
        color-interpolation-filters: sRGB
    }
    </style>
    <g stroke="#000" fill="#444" stroke-width="21.176" class="B">
        <path fill-opacity="0" d="M 792.847,222.353 L 792.847,81.176 L 1656.282,81.176 L 1656.282,632.047 L 792.847,632.047 L 792.847,490.871" />
        <path fill-opacity="0" d="M 863.435,81.176 L 863.435,10.588 L 1726.87,10.588 L 1726.87,561.459 L 1656.282,561.459" />
    </g>
    <path d="M 0.0,421.482 L 0.0,252.635 L 31.835,252.635 L 31.835,321.67 L 86.4,321.67 L 86.4,252.635 L 118.235,252.635 L 118.235,421.482 L 86.4,421.482 L 86.4,352.023 L 31.835,352.023 L 31.835,421.482 L 0.0,421.482 M 153.882,421.482 L 153.882,392.541 L 194.4,392.541 L 194.4,330.776 L 156.776,330.776 L 156.776,301.835 L 224.823,301.835 L 224.823,392.541 L 259.552,392.541 L 259.552,421.482 L 153.882,421.482 M 232.306,266.4 L 232.306,266.4 Q 232.306,271.271 230.471,275.435 Q 228.636,279.67 225.53,282.706 Q 222.354,285.741 218.189,287.506 Q 213.954,289.341 209.365,289.341 L 209.365,289.341 Q 204.565,289.341 200.471,287.506 Q 196.306,285.741 193.2,282.706 Q 190.094,279.671 188.259,275.435 Q 186.424,271.27 186.424,266.4 L 186.424,266.4 Q 186.424,261.6 188.259,257.365 Q 190.094,253.13 193.2,250.165 Q 196.306,247.13 200.471,245.294 Q 204.565,243.529 209.365,243.529 L 209.365,243.529 Q 213.953,243.529 218.189,245.294 Q 222.354,247.129 225.53,250.165 Q 228.636,253.13 230.471,257.365 Q 232.306,261.6 232.306,266.4 M 384.706,433.553 L 384.706,404.118 L 380.33,404.118 Q 378.424,408.212 375.671,411.953 Q 372.847,415.694 368.4,418.588 Q 363.953,421.482 357.812,423.176 Q 351.671,424.87 342.988,424.87 L 342.988,424.87 Q 331.906,424.87 322.376,420.846 Q 312.847,416.893 305.717,409.058 Q 298.588,401.223 294.635,389.858 Q 290.611,378.564 290.611,363.811 L 290.611,363.811 L 290.611,359.505 Q 290.611,345.034 294.846,333.67 Q 299.081,322.376 306.422,314.541 Q 313.763,306.706 323.575,302.612 Q 333.316,298.518 344.187,298.518 L 344.187,298.518 Q 358.658,298.518 367.058,303.883 Q 375.529,309.318 380.329,319.201 L 380.329,319.201 L 384.705,319.201 L 384.705,301.836 L 415.058,301.836 L 415.058,450.918 Q 415.058,459.106 409.905,464.4 Q 404.681,469.694 396.493,469.694 L 396.493,469.694 L 315.952,469.694 L 315.952,440.753 L 378.211,440.753 Q 384.705,440.753 384.705,433.553 L 384.706,433.553 M 352.871,395.929 L 352.871,395.929 Q 367.059,395.929 375.883,386.894 Q 384.707,377.859 384.707,363.106 L 384.707,363.106 L 384.707,360.212 Q 384.707,345.53 375.883,336.494 Q 367.059,327.459 352.871,327.459 L 352.871,327.459 Q 338.612,327.459 329.789,336.212 Q 321.036,345.036 321.036,360.212 L 321.036,360.212 L 321.036,363.106 Q 321.036,378.282 329.789,387.106 Q 338.613,395.93 352.871,395.93 L 352.871,395.929 M 477.812,359.294 L 477.812,421.482 L 447.388,421.482 L 447.388,252.635 L 477.812,252.635 L 477.812,321.176 L 482.118,321.176 Q 486.706,310.305 495.6,304.376 Q 504.565,298.517 517.553,298.517 L 517.553,298.517 Q 526.518,298.517 534.0,301.411 Q 541.412,304.305 546.988,310.093 Q 552.564,315.881 555.67,324.917 Q 558.776,333.952 558.776,346.235 L 558.776,346.235 L 558.776,421.482 L 528.423,421.482 L 528.423,353.506 Q 528.423,340.659 522.282,333.318 Q 516.141,325.977 504.564,325.977 L 504.564,325.977 Q 491.011,325.977 484.376,335.012 Q 477.811,344.047 477.811,359.294 L 477.812,359.294 M 649.977,395.929 L 649.977,395.929 Q 659.153,395.929 665.012,393.176 Q 670.941,390.352 674.188,385.694 Q 677.435,380.965 678.635,374.823 Q 679.906,368.682 679.906,362.188 L 679.906,362.188 L 679.906,357.812 L 711.741,357.812 L 711.741,362.188 Q 711.741,392.329 695.929,408.564 Q 680.117,424.87 649.976,424.87 L 649.976,424.87 Q 621.035,424.87 604.164,407.223 Q 587.293,389.647 587.293,355.905 L 587.293,355.905 L 587.293,318.281 Q 587.293,302.116 591.599,289.199 Q 595.975,276.281 604.164,267.528 Q 612.352,258.704 623.929,253.975 Q 635.505,249.316 649.976,249.316 L 649.976,249.316 Q 664.941,249.316 676.517,253.622 Q 688.093,257.998 695.929,266.187 Q 703.764,274.375 707.717,285.952 Q 711.741,297.528 711.741,311.999 L 711.741,311.999 L 711.741,316.305 L 679.906,316.305 L 679.906,312.0 Q 679.906,305.929 678.424,299.929 Q 677.012,293.929 673.624,289.058 Q 670.236,284.258 664.448,281.223 Q 658.66,278.258 649.977,278.258 L 649.977,278.258 Q 642.001,278.258 636.212,281.223 Q 630.424,284.258 626.612,289.411 Q 622.73,294.635 620.894,301.482 Q 619.129,308.4 619.129,315.882 L 619.129,315.882 L 619.129,358.306 Q 619.129,366.494 620.823,373.341 Q 622.447,380.259 626.117,385.341 Q 629.717,390.353 635.646,393.176 Q 641.505,395.929 649.975,395.929 L 649.977,395.929 M 859.271,360.211 L 859.271,363.105 Q 859.271,378.07 854.259,389.505 Q 849.177,401.011 840.494,408.846 Q 831.812,416.681 820.588,420.775 Q 809.364,424.869 797.082,424.869 L 797.082,424.869 Q 784.8,424.869 773.576,420.775 Q 762.352,416.681 753.67,408.846 Q 744.988,401.011 739.905,389.505 Q 734.893,378.07 734.893,363.105 L 734.893,363.105 L 734.893,360.211 Q 734.893,345.529 739.905,334.093 Q 744.987,322.587 753.67,314.611 Q 762.352,306.705 773.576,302.611 Q 784.8,298.517 797.082,298.517 L 797.082,298.517 Q 809.364,298.517 820.588,302.611 Q 831.812,306.705 840.494,314.611 Q 849.176,322.587 854.259,334.093 Q 859.271,345.528 859.271,360.211 M 797.083,395.929 L 797.083,395.929 Q 803.577,395.929 809.365,393.741 Q 815.153,391.553 819.53,387.459 Q 823.836,383.365 826.377,377.435 Q 828.918,371.576 828.918,364.094 L 828.918,364.094 L 828.918,359.294 Q 828.918,351.812 826.377,345.882 Q 823.836,339.953 819.53,335.858 Q 815.154,331.764 809.365,329.576 Q 803.577,327.458 797.083,327.458 L 797.083,327.458 Q 790.589,327.458 784.801,329.576 Q 779.013,331.764 774.636,335.858 Q 770.33,339.952 767.789,345.882 Q 765.248,351.811 765.248,359.294 L 765.248,359.294 L 765.248,364.094 Q 765.248,371.576 767.789,377.435 Q 770.33,383.364 774.636,387.459 Q 779.012,391.553 784.801,393.741 Q 790.589,395.929 797.083,395.929 M 920.048,359.294 L 920.048,421.482 L 889.695,421.482 L 889.695,301.835 L 920.048,301.835 L 920.048,319.694 L 924.424,319.694 Q 928.518,309.6 937.695,304.023 Q 946.871,298.517 959.154,298.517 L 959.154,298.517 Q 967.836,298.517 975.46,301.27 Q 983.013,304.023 988.801,309.811 Q 994.589,315.599 997.836,324.564 Q 1001.083,333.458 1001.083,345.74 L 1001.083,345.74 L 1001.083,421.481 L 970.73,421.481 L 970.73,353.505 Q 970.73,340.658 964.589,333.317 Q 958.448,325.976 946.871,325.976 L 946.871,325.976 Q 933.318,325.976 926.683,335.011 Q 920.048,344.046 920.048,359.293 L 920.048,359.294 M 1033.907,330.776 L 1033.907,301.835 L 1069.342,301.835 L 1069.342,252.635 L 1099.766,252.635 L 1099.766,301.835 L 1142.895,301.835 L 1142.895,330.776 L 1099.766,330.776 L 1099.766,385.341 Q 1099.766,392.541 1106.26,392.541 L 1106.26,392.541 L 1138.589,392.541 L 1138.589,421.482 L 1087.907,421.482 Q 1079.719,421.482 1074.566,416.188 Q 1069.342,410.894 1069.342,402.706 L 1069.342,402.706 L 1069.342,330.777 L 1033.907,330.776 M 1299.46,371.576 L 1211.648,371.576 Q 1211.86,376.87 1214.189,381.317 Q 1216.448,385.764 1220.471,389.011 Q 1224.424,392.329 1229.647,394.093 Q 1234.8,395.928 1240.588,395.928 L 1240.588,395.928 Q 1251.953,395.928 1257.953,391.904 Q 1263.953,387.951 1266.635,382.445 L 1266.635,382.445 L 1292.682,396.916 Q 1290.494,401.434 1286.682,406.375 Q 1282.8,411.387 1276.658,415.481 Q 1270.517,419.575 1261.693,422.187 Q 1252.869,424.8697 1241.081,424.8697 L 1241.081,424.8697 Q 1227.528,424.8697 1216.446,420.493 Q 1205.364,416.187 1197.317,407.999 Q 1189.199,399.811 1184.752,387.952 Q 1180.305,376.164 1180.305,361.199 L 1180.305,361.199 L 1180.305,359.717 Q 1180.305,346.023 1184.964,334.658 Q 1189.693,323.293 1197.882,315.387 Q 1206.07,307.411 1217.082,302.963 Q 1228.023,298.516 1240.588,298.516 L 1240.588,298.516 Q 1256.047,298.516 1267.129,303.881 Q 1278.211,309.316 1285.411,317.646 Q 1292.682,325.975 1296.07,335.999 Q 1299.458,346.023 1299.458,355.411 L 1299.458,355.411 L 1299.46,371.576 M 1240.378,325.9764 L 1240.378,325.9764 Q 1228.802,325.9764 1221.531,331.905 Q 1214.331,337.764 1212.143,345.529 L 1212.143,345.529 L 1268.543,345.529 Q 1267.131,337.058 1259.508,331.553 Q 1251.955,325.977 1240.379,325.977 L 1240.378,325.9764 M 1389.602,345.741 L 1411.837,301.835 L 1445.366,301.835 L 1416.425,358.023 L 1416.425,362.399 L 1447.06,421.481 L 1412.048,421.481 L 1389.601,374.681 L 1385.295,374.681 L 1362.848,421.481 L 1327.907,421.481 L 1358.542,362.399 L 1358.542,358.023 L 1329.318,301.835 L 1363.13,301.835 L 1385.295,345.741 L 1389.602,345.741 M 1476.708,330.776 L 1476.708,301.835 L 1512.143,301.835 L 1512.143,252.635 L 1542.496,252.635 L 1542.496,301.835 L 1585.696,301.835 L 1585.696,330.776 L 1542.496,330.776 L 1542.496,385.341 Q 1542.496,392.541 1549.061,392.541 L 1549.061,392.541 L 1581.39,392.541 L 1581.39,421.482 L 1530.708,421.482 Q 1522.52,421.482 1517.296,416.188 Q 1512.143,410.894 1512.143,402.706 L 1512.143,402.706 L 1512.143,330.777 L 1476.708,330.776" class="B" />
</svg>
